X:189
T:Miss Betsy Robertson
T:Molly Malone
R:Reel
O:Scotland, Ireland
B:Kerr's Second p15
S:1 Kerr's Second p15
Z:1 Transcription, chords:Mike Long
S:2 O'Neill's 1468
Z:2 Transcription:Bob Safranek, chords:Mike Long
M:C|
L:1/8
K:G
P:Arr. Kerr's
c|\
"G"d3g BGdB|"Am"Aaag "D"fdef|"G"gfgd BcdB|"D"cAdc "G"BGG:|\
c|\
"G"BGDG "C"EG"G"DG|"D"ABcB "C"cedc|
"G"BGDG "C"EGce|"D"dBcA "G"BGGc|\
"G"BGDG "C"EG"G"DG|"D"ABcB "C"cedc|"G"Bdgd "C"ceag|"D"fdef "G"gGG|]
P:Arr. O'Neill's
d|\
"G"g2dc B2GB|"Am"Abag "D"fdef|"G"gfgd "(C)"ecdB|"D"cAFD "G"GBdf|\
"G"g2dc B2GB|
"Am"Abag "D"fdef|"G"gbfa "(C)"egdB|"D"cAdc "G"BGG|]\
c|\
"G"BGDG "C"EG"G"DG|"D"ABcA "C"cedc|
"G"BGDG "C"EGce|"C"ge"D"dc "G"BGGc|\
"G"BGDG "C"EG"G"DG|"D"ABcA "C"cedc|"G"BdgB "C"ceag|"D"fdcA "G"BGG|]
